src/assets/custom-icons/dr-vidrios.svg

<svg xmlns="http://www.w3.org/2000/svg" width="18" height="18" viewBox="0 0 18 18">
    <g fill="none" stroke="#9B9B9B">
        <path d="M4.645.566C4.462.504 4.2.489 3.853.5h-.016c-.245 0-.438.017-.563.093-.024.014-.032.037-.032.064v3.808c0 1.133-.724 2.04-1.498 2.932C1.147 8.085.5 8.76.5 9.645l.012 6.908c.085.258.491.422.935.576.67.232 1.568.371 2.553.371.985 0 1.882-.139 2.553-.371.45-.155.855-.322.947-.58l-.016-7.14c-.107-.77-.683-1.385-1.228-2.012-.772-.89-1.495-1.795-1.498-2.924L4.645.566z" transform="translate(5)"/>
        <path stroke-linecap="round" d="M6.5 12.3L6.5 14.7M6.5 10.222L6.5 10.75" transform="translate(5)"/>
    </g>
</svg>

<?xml version="1.0" encoding="UTF-8" standalone="no"?>
<svg
   xmlns:dc="http://purl.org/dc/elements/1.1/"
   xmlns:cc="http://creativecommons.org/ns#"
   xmlns:rdf="http://www.w3.org/1999/02/22-rdf-syntax-ns#"
   xmlns:svg="http://www.w3.org/2000/svg"
   xmlns="http://www.w3.org/2000/svg"
   xmlns:sodipodi="http://sodipodi.sourceforge.net/DTD/sodipodi-0.dtd"
   xmlns:inkscape="http://www.inkscape.org/namespaces/inkscape"
   width="512"
   height="512"
   viewBox="0 0 512 512"
   version="1.1"
   id="svg275"
   sodipodi:docname="dr-vidrios.svg"
   inkscape:version="1.0 (6e3e5246a0, 2020-05-07)">
  <metadata
     id="metadata281">
    <rdf:RDF>
      <cc:Work
         rdf:about="">
        <dc:format>image/svg+xml</dc:format>
        <dc:type
           rdf:resource="http://purl.org/dc/dcmitype/StillImage" />
        <dc:title></dc:title>
      </cc:Work>
    </rdf:RDF>
  </metadata>
  <defs
     id="defs279">
    <path
       id="prefix__a"
       d="M0 0.125L22.894 0.125 22.894 18.095 0 18.095z" />
    <path
       id="prefix__a-3"
       d="M0 0.005L11.387 0.005 11.387 18.346 0 18.346z" />
    <path
       id="prefix__a-7"
       d="M0 0.072L7.267 0.072 7.267 8.05 0 8.05z" />
    <path
       id="prefix__c"
       d="M0.072 0.001L7.993 0.001 7.993 8.87 0.072 8.87z" />
    <path
       id="prefix__e"
       d="M0.04 0.073L8.507 0.073 8.507 5.86 0.04 5.86z" />
    <path
       id="prefix__a-35"
       d="M0 0.125L22.894 0.125 22.894 18.095 0 18.095z" />
    <path
       id="prefix__a-6"
       d="M0 0.005L11.387 0.005 11.387 18.346 0 18.346z" />
    <path
       id="prefix__a-2"
       d="M0 0.072L7.267 0.072 7.267 8.05 0 8.05z" />
    <path
       id="prefix__c-9"
       d="M0.072 0.001L7.993 0.001 7.993 8.87 0.072 8.87z" />
    <path
       id="prefix__e-1"
       d="M0.04 0.073L8.507 0.073 8.507 5.86 0.04 5.86z" />
  </defs>
  <sodipodi:namedview
     inkscape:document-rotation="0"
     pagecolor="#ffffff"
     bordercolor="#666666"
     borderopacity="1"
     objecttolerance="10"
     gridtolerance="10"
     guidetolerance="10"
     inkscape:pageopacity="0"
     inkscape:pageshadow="2"
     inkscape:window-width="1533"
     inkscape:window-height="845"
     id="namedview277"
     showgrid="false"
     showguides="true"
     inkscape:guide-bbox="true"
     inkscape:object-paths="true"
     inkscape:snap-bbox="true"
     inkscape:snap-smooth-nodes="true"
     inkscape:snap-bbox-edge-midpoints="true"
     inkscape:zoom="0.90885417"
     inkscape:cx="233.63604"
     inkscape:cy="251.3413"
     inkscape:window-x="67"
     inkscape:window-y="27"
     inkscape:window-maximized="1"
     inkscape:current-layer="layer1">
    <sodipodi:guide
       position="48,175.67752"
       orientation="-1,0"
       id="guide285"
       inkscape:label=""
       inkscape:locked="false"
       inkscape:color="rgb(0,0,255)" />
    <sodipodi:guide
       position="337.78796,464"
       orientation="0,1"
       id="guide568"
       inkscape:label=""
       inkscape:locked="false"
       inkscape:color="rgb(0,0,255)" />
  </sodipodi:namedview>
  <g
     inkscape:groupmode="layer"
     id="layer1"
     inkscape:label="Layer 1"
     style="display:inline">
    <g
       transform="matrix(23.105387,0,0,23.105387,48.049273,48.103032)"
       fill="none"
       stroke="#9b9b9b"
       id="g1931">
      <path
         d="M 4.645,0.566 C 4.462,0.504 4.2,0.489 3.853,0.5 H 3.837 C 3.592,0.5 3.399,0.517 3.274,0.593 3.25,0.607 3.242,0.63 3.242,0.657 v 3.808 c 0,1.133 -0.724,2.04 -1.498,2.932 C 1.147,8.085 0.5,8.76 0.5,9.645 l 0.012,6.908 c 0.085,0.258 0.491,0.422 0.935,0.576 0.67,0.232 1.568,0.371 2.553,0.371 0.985,0 1.882,-0.139 2.553,-0.371 0.45,-0.155 0.855,-0.322 0.947,-0.58 L 7.484,9.409 C 7.377,8.639 6.801,8.024 6.256,7.397 5.484,6.507 4.761,5.602 4.758,4.473 Z"
         transform="translate(5)"
         id="path1927" />
      <path
         stroke-linecap="round"
         d="m 6.5,12.3 v 2.4 m 0,-4.478 v 0.528"
         transform="translate(5)"
         id="path1929" />
    </g>
  </g>
  <inkscape:templateinfo>
    <inkscape:name>icon</inkscape:name>
    <inkscape:date>2020-05-20</inkscape:date>
  </inkscape:templateinfo>
</svg>
